X: 415
T:Pretty Girls of Mayo, The
M:4/4
L:1/8
R:reel
Z:Andrew Pickering
K:G
DG G2 A2 de|fdge fdcA|G2 FG Adde|fdcA BGAF|
DG G2 A2 de|fdge fdcA|G2 FG Adde|fdcA AG G2||
g2ge fdde|fdge fdde|g2 ge fdde|fdcA AG~G2|
g2ge fdde|fdge fdd^c|defg abag|fdcA BGAF||
<end>
<start>
